X:611
T:Sugarfoot Rag
S:Tim O'Brien
Z:Nigel Gatherer
L:1/8
M:4/4
K:A
eg | agab     afef | =gfga gedf | e^def    ecAF | EFAB A2 :|
AA | =c^c=c^c ABAF | EFAc  BAFA | =c^c=c^c ABAF | EFAB A2 :|]
<end>
<start>
